X: 1
T: Fans'halling fr\aa \Orskog
O: arr. D\aam og drag
R: halling
S: printed MS of unknown origin
M: 2/4
L: 1/16
K: G
D \
| "G"G2(GB) d3g | (gf)"D"af "G"d2g2 \
| (gf)"D"af "G"d2(BG) | BAGF G3 :|
|: B \
| "G"B2(dc) "D"A2"G"(BG) | B2(dc) "D"A3c \
| "G"B2(dc) "D"A2"G"(BG) |1,3 (BA)GF (GA)Bc :|2,4 "D"BAGF "G"G3 :|
